status/symbolic/microphone-sensitivity-medium-symbolic.svg

<svg enable-background="new" height="16.001" width="16.001" xmlns="http://www.w3.org/2000/svg">
  <g fill="#bebebe" transform="matrix(.08851047057 0 0 .08851047057 3.84046290791 1.9820176625)">
    <path d="m8 1.5c-.6875313 0-1.2760106.2448565-1.765625.734375s-.734375 1.0780937-.734375 1.765625v4c0 .6875313.2448565 1.2762024.734375 1.765625.4895185.489423 1.0780937.734375 1.765625.734375s1.2761065-.244952 1.765625-.734375c.489518-.4894226.734375-1.0780937.734375-1.765625v-4c0-.6875313-.244665-1.2760106-.734375-1.765625-.4895185-.4895185-1.0780937-.734375-1.765625-.734375zm0 .7753906c.4633855 0 .861478.1545861 1.1914062.4628906.3300572.3083651.4941407.6802659.4941407 1.1132813v4.3613281c0 .4330155-.1642131.8030843-.4941407 1.1113282-.3299283.3082431-.7280207.4628906-1.1914062.4628906-.4633856 0-.8595252-.1546475-1.1894531-.4628906-.3299281-.3082439-.4941407-.6783127-.4941407-1.1113282v-4.3613281c0-.4330154.164148-.8049766.4941407-1.1132813.3299926-.3083045.7260675-.4628906 1.1894531-.4628906z" transform="matrix(10.428615 0 0 10.428615 -36.433635 -15.434102)" />
    <path d="m92.38 53.905c-1.03-1.032-2.254-1.548-3.666-1.548s-2.634.516-3.666 1.548-1.548 2.254-1.548 3.666v10.429c0 10.049-3.572 18.643-10.714 25.786-7.141 7.143-15.737 10.714-25.786 10.714s-18.644-3.571-25.787-10.714c-7.142-7.141-10.713-15.737-10.713-25.786v-10.429c0-1.412-.516-2.634-1.548-3.666s-2.253-1.548-3.666-1.548-2.635.516-3.667 1.548-1.548 2.254-1.548 3.666v10.429c0 12.004 4.006 22.446 12.017 31.326s17.91 13.972 29.697 15.275v10.756h-20.857c-1.412 0-2.634.516-3.666 1.548s-1.548 2.254-1.548 3.666c0 1.411.516 2.635 1.548 3.666 1.032 1.032 2.254 1.549 3.666 1.549h52.142c1.412 0 2.636-.517 3.666-1.549 1.033-1.031 1.55-2.255 1.55-3.666 0-1.412-.517-2.634-1.55-3.666-1.03-1.032-2.254-1.548-3.666-1.548h-20.855v-10.756c11.785-1.303 21.684-6.395 29.696-15.275s12.019-19.322 12.019-31.326v-10.429c0-1.412-.517-2.633-1.55-3.666z" />
  </g>
</svg>

<?xml version="1.0" encoding="UTF-8" standalone="no"?>
<!-- Created with Inkscape (http://www.inkscape.org/) -->

<svg
   xmlns:sketch="http://www.bohemiancoding.com/sketch/ns"
   xmlns:osb="http://www.openswatchbook.org/uri/2009/osb"
   xmlns:dc="http://purl.org/dc/elements/1.1/"
   xmlns:cc="http://creativecommons.org/ns#"
   xmlns:rdf="http://www.w3.org/1999/02/22-rdf-syntax-ns#"
   xmlns:svg="http://www.w3.org/2000/svg"
   xmlns="http://www.w3.org/2000/svg"
   xmlns:xlink="http://www.w3.org/1999/xlink"
   xmlns:sodipodi="http://sodipodi.sourceforge.net/DTD/sodipodi-0.dtd"
   xmlns:inkscape="http://www.inkscape.org/namespaces/inkscape"
   id="svg7384"
   style="enable-background:new"
   height="16.001"
   width="16.001"
   version="1.1"
   inkscape:version="0.91 r13725"
   sodipodi:docname="audio-input-microphone-medium-symbolic.svg">
  <sodipodi:namedview
     pagecolor="#ffffff"
     bordercolor="#666666"
     borderopacity="1"
     objecttolerance="10"
     gridtolerance="10"
     guidetolerance="10"
     inkscape:pageopacity="0"
     inkscape:pageshadow="2"
     inkscape:window-width="1366"
     inkscape:window-height="633"
     id="namedview10"
     showgrid="false"
     inkscape:zoom="20.858347"
     inkscape:cx="-6.7935577"
     inkscape:cy="11.169849"
     inkscape:window-x="0"
     inkscape:window-y="33"
     inkscape:window-maximized="1"
     inkscape:current-layer="svg7384" />
  <metadata
     id="metadata90">
    <rdf:RDF>
      <cc:Work
         rdf:about="">
        <dc:format>image/svg+xml</dc:format>
        <dc:type
           rdf:resource="http://purl.org/dc/dcmitype/StillImage" />
        <dc:title>Paper Symbolic Icon Theme</dc:title>
      </cc:Work>
    </rdf:RDF>
  </metadata>
  <title
     id="title8473">Paper Symbolic Icon Theme</title>
  <defs
     id="defs7386">
    <filter
       id="filter7554"
       style="color-interpolation-filters:sRGB">
      <feBlend
         id="feBlend7556"
         in2="BackgroundImage"
         mode="darken" />
    </filter>
    <linearGradient
       id="linearGradient4207"
       osb:paint="gradient">
      <stop
         style="stop-color:#3498db;stop-opacity:1;"
         offset="0"
         id="stop3371" />
      <stop
         style="stop-color:#3498db;stop-opacity:0;"
         offset="1"
         id="stop3373" />
    </linearGradient>
    <filter
       color-interpolation-filters="sRGB"
       id="filter7554-0">
      <feBlend
         mode="darken"
         in2="BackgroundImage"
         id="feBlend7556-75" />
    </filter>
    <linearGradient
       x1="8.9254236"
       y1="5.9997859"
       x2="8.9254236"
       y2="19"
       id="linearGradient2868"
       xlink:href="#linearGradient3678"
       gradientUnits="userSpaceOnUse"
       gradientTransform="translate(-1,-2)" />
    <linearGradient
       id="linearGradient3678">
      <stop
         id="stop3680"
         style="stop-color:#ffffff;stop-opacity:1"
         offset="0" />
      <stop
         id="stop3682"
         style="stop-color:#e6e6e6;stop-opacity:1"
         offset="1" />
    </linearGradient>
    <linearGradient
       x1="9"
       y1="3"
       x2="9"
       y2="21"
       id="linearGradient2393"
       xlink:href="#linearGradient3678"
       gradientUnits="userSpaceOnUse"
       gradientTransform="translate(-2,-1)" />
    <linearGradient
       gradientTransform="translate(-1.0001235,-5)"
       gradientUnits="userSpaceOnUse"
       xlink:href="#linearGradient3587-6-5-3"
       id="linearGradient2398"
       y2="21"
       x2="14"
       y1="3"
       x1="14" />
    <linearGradient
       id="linearGradient3587-6-5-3">
      <stop
         offset="0"
         style="stop-color:#000000;stop-opacity:1"
         id="stop3589-9-2-0" />
      <stop
         offset="1"
         style="stop-color:#363636;stop-opacity:1"
         id="stop3591-7-4-7" />
    </linearGradient>
    <linearGradient
       gradientTransform="translate(-52.096803,-11.363826)"
       gradientUnits="userSpaceOnUse"
       xlink:href="#linearGradient3587-6-5-3"
       id="linearGradient2395"
       y2="27.363825"
       x2="66.09668"
       y1="9.3638258"
       x1="66.09668" />
    <linearGradient
       gradientUnits="userSpaceOnUse"
       xlink:href="#linearGradient3587-6-5-3"
       id="linearGradient7390"
       y2="13.496136"
       x2="4.9554448"
       y1="2.6841583"
       x1="4.9554448" />
    <linearGradient
       gradientUnits="userSpaceOnUse"
       xlink:href="#linearGradient3587-6-5-3"
       id="linearGradient7392"
       y2="11.649005"
       x2="7.9109159"
       y1="4.5762329"
       x1="7.9109159" />
    <linearGradient
       gradientUnits="userSpaceOnUse"
       xlink:href="#linearGradient3587-6-5-3"
       id="linearGradient7394"
       y2="13.317288"
       x2="10.186814"
       y1="2.7742527"
       x1="10.186814" />
    <linearGradient
       gradientUnits="userSpaceOnUse"
       xlink:href="#linearGradient3587-6-5-3"
       id="linearGradient7396"
       y2="15.183488"
       x2="13.917011"
       y1="0.88217813"
       x1="13.917011" />
    <linearGradient
       id="linearGradient5263">
      <stop
         offset="0"
         style="stop-color:#a0d5ff;stop-opacity:1"
         id="stop5265" />
      <stop
         offset="1"
         style="stop-color:#a0d5ff;stop-opacity:1"
         id="stop5267" />
    </linearGradient>
    <filter
       id="filter7554-5"
       color-interpolation-filters="sRGB">
      <feBlend
         id="feBlend7556-7"
         in2="BackgroundImage"
         mode="darken" />
    </filter>
  </defs>
  <g
     transform="matrix(0.74997133,0,0,0.74997133,2.0007294,-775.24096)"
     id="layer1"
     inkscape:label="Capa 1">
    <g
       inkscape:label="Capa 1"
       id="layer1-4"
       transform="translate(-412.88298,512.00351)">
      <g
         transform="translate(392.57143,-514.5642)"
         id="layer1-7"
         inkscape:label="Capa 1"
         style="fill:#ffffff;fill-opacity:1" />
      <g
         id="g4240"
         transform="translate(341.79698,500.25245)">
        <g
           inkscape:transform-center-y="-9.4924686"
           inkscape:transform-center-x="5.4653607"
           inkscape:label="Capa 1"
           id="layer1-1"
           transform="translate(-392.98822,-511.27795)">
          <g
             transform="matrix(0.71733438,0,0,0.71733438,181.16816,163.89609)"
             id="layer1-5-4"
             inkscape:label="Capa 1"
             style="fill:#bebebe;fill-opacity:1">
            <g
               transform="matrix(2.0802722,0,0,2.0802722,350.91598,-1637.5069)"
               id="layer1-5-5"
               inkscape:label="Capa 1"
               style="fill:#bebebe;fill-opacity:1">
              <g
                 style="fill:#bebebe;fill-opacity:1"
                 transform="matrix(0.07908756,0,0,0.07908756,22.539801,1036.0878)"
                 sketch:type="MSLayerGroup"
                 id="microphone28">
                <g
                   style="fill:#bebebe;fill-opacity:1"
                   sketch:type="MSShapeGroup"
                   id="g4987">
                  <path
                     style="fill:#bebebe;fill-opacity:1"
                     d="M 8,1.5 C 7.3124687,1.5 6.7239894,1.7448565 6.234375,2.234375 5.7447606,2.7238935 5.5,3.3124687 5.5,4 l 0,4 C 5.5,8.6875313 5.7448565,9.2762024 6.234375,9.765625 6.7238935,10.255048 7.3124687,10.5 8,10.5 8.6875313,10.5 9.2761065,10.255048 9.765625,9.765625 10.255143,9.2762024 10.5,8.6875313 10.5,8 l 0,-4 C 10.5,3.3124687 10.255335,2.7239894 9.765625,2.234375 9.2761065,1.7448565 8.6875313,1.5 8,1.5 Z m 0,0.7753906 c 0.4633855,0 0.861478,0.1545861 1.1914062,0.4628906 0.3300572,0.3083651 0.4941407,0.6802659 0.4941407,1.1132813 l 0,4.3613281 c 0,0.4330155 -0.1642131,0.8030843 -0.4941407,1.1113282 C 8.8614779,9.6324619 8.4633855,9.7871094 8,9.7871094 7.5366144,9.7871094 7.1404748,9.6324619 6.8105469,9.3242188 6.4806188,9.0159749 6.3164062,8.6459061 6.3164062,8.2128906 l 0,-4.3613281 c 0,-0.4330154 0.164148,-0.8049766 0.4941407,-1.1132813 C 7.1405395,2.4299767 7.5366144,2.2753906 8,2.2753906 Z"
                     transform="matrix(10.428615,0,0,10.428615,-36.433635,-15.434102)"
                     id="path4989"
                     inkscape:connector-curvature="0" />
                  <path
                     style="fill:#bebebe;fill-opacity:1"
                     inkscape:connector-curvature="0"
                     id="path4991"
                     d="m 92.38,53.905 c -1.03,-1.032 -2.254,-1.548 -3.666,-1.548 -1.412,0 -2.634,0.516 -3.666,1.548 -1.032,1.032 -1.548,2.254 -1.548,3.666 L 83.5,68 C 83.5,78.049 79.928,86.643 72.786,93.786 65.645,100.929 57.049,104.5 47,104.5 36.951,104.5 28.356,100.929 21.213,93.786 14.071,86.645 10.5,78.049 10.5,68 l 0,-10.429 C 10.5,56.159 9.984,54.937 8.952,53.905 7.92,52.873 6.699,52.357 5.286,52.357 c -1.413,0 -2.635,0.516 -3.667,1.548 -1.032,1.032 -1.548,2.254 -1.548,3.666 l 0,10.429 c 0,12.004 4.006,22.446 12.017,31.326 8.011,8.88 17.91,13.972 29.697,15.275 l 0,10.756 -20.857,0 c -1.412,0 -2.634,0.516 -3.666,1.548 -1.032,1.032 -1.548,2.254 -1.548,3.666 0,1.411 0.516,2.635 1.548,3.666 1.032,1.032 2.254,1.549 3.666,1.549 l 52.142,0 c 1.412,0 2.636,-0.517 3.666,-1.549 1.033,-1.031 1.55,-2.255 1.55,-3.666 0,-1.412 -0.517,-2.634 -1.55,-3.666 -1.03,-1.032 -2.254,-1.548 -3.666,-1.548 l -20.855,0 0,-10.756 C 64,113.298 73.899,108.206 81.911,99.326 89.923,90.446 93.93,80.004 93.93,68 l 0,-10.429 c 0,-1.412 -0.517,-2.633 -1.55,-3.666 l 0,0 z" />
                </g>
              </g>
            </g>
          </g>
        </g>
      </g>
    </g>
  </g>
</svg>
